!!!SOCIAL_FUNCTION:	bird dance songs
!!!PDT:	1956
!!!OTL: No_94_Chicken_Dance_Song_(c).krn
!!!LANG: Non-Tone
!!!LING_GROUP: Muskogean
!!!REG: Florida
**kern
*staff1
=1-
=
*clefF4
*k[b-]
*M2/4
4.c\
8B-\
=2
12B-\L
12F\
12c\J
8.c\L
16d\Jk
=3
4.c\
8B-\
=4
12A\L
8F\
24A\Jk
8.A\L
16c\Jk
=5||
*M5/8
4.B-\
4A\
=6||
*M2/4
16F\LK
8F\
16F\Jk
8.F\L
16A\Jk
=7||
*M3/4
4.F\
8F\
4F\
=8||
*M2/4
2A\
=9
8.F\L
16A\Jk
8.A\L
16c\Jk
=10||
*M3/4
2B-\
4A\
=11||
*M2/4
8F\
8r
8.F\L
16A\Jk
=12||
*M3/4
4.F\
8F\
4F\
==:|!
*-
